svg/weather/fahrenheit_line.svg

<?xml version="1.0" encoding="UTF-8"?>
<svg width="24px" height="24px" viewBox="0 0 24 24" version="1.1" xmlns="http://www.w3.org/2000/svg" xmlns:xlink="http://www.w3.org/1999/xlink">
    <title>fahrenheit_line</title>
    <g id="Icon" stroke="none" stroke-width="1" fill="none" fill-rule="evenodd">
        <g id="Weather" transform="translate(-145.000000, -96.000000)" fill-rule="nonzero">
            <g id="fahrenheit_line" transform="translate(145.000000, 96.000000)">
                <path d="M24,0 L24,24 L0,24 L0,0 L24,0 Z M12.5935,23.2578 L12.5819,23.2595 L12.5109,23.295 L12.4919,23.2987 L12.4767,23.295 L12.4057,23.2595 C12.3958,23.2564 12.387,23.259 12.3821,23.2649 L12.378,23.2758 L12.3609,23.7031 L12.3659,23.7235 L12.3769,23.7357 L12.4805,23.8097 L12.4953,23.8136 L12.5071,23.8097 L12.6107,23.7357 L12.6233,23.7197 L12.6267,23.7031 L12.6096,23.2758 C12.6076,23.2657 12.601,23.2593 12.5935,23.2578 Z M12.8584,23.1453 L12.8445,23.1473 L12.6598,23.2397 L12.6499,23.2499 L12.6472,23.2611 L12.6651,23.6906 L12.6699,23.7034 L12.6784,23.7105 L12.8793,23.8032 C12.8914,23.8069 12.9022,23.803 12.9078,23.7952 L12.9118,23.7812 L12.8777,23.1665 C12.8753,23.1546 12.8674,23.147 12.8584,23.1453 Z M12.143,23.1473 C12.1332,23.1424 12.1222,23.1453 12.1156,23.1526 L12.1099,23.1665 L12.0758,23.7812 C12.0751,23.7927 12.0828,23.8019 12.0926,23.8046 L12.1083,23.8032 L12.3092,23.7105 L12.3186,23.7024 L12.3225,23.6906 L12.3404,23.2611 L12.3372,23.2485 L12.3278,23.2397 L12.143,23.1473 Z" id="MingCute"></path>
                <path d="M6,4 C7.65685425,4 9,5.34314575 9,7 C9,8.65685425 7.65685425,10 6,10 C4.34314575,10 3,8.65685425 3,7 C3,5.34314575 4.34314575,4 6,4 Z M6,6 C5.44771525,6 5,6.44771525 5,7 C5,7.55228475 5.44771525,8 6,8 C6.55228475,8 7,7.55228475 7,7 C7,6.44771525 6.55228475,6 6,6 Z M13,4 C11.8954,4 11,4.89543 11,6 L11,19 C11,19.5523 11.4477,20 12,20 C12.5523,20 13,19.5523 13,19 L13,13 L19,13 C19.5523,13 20,12.5523 20,12 C20,11.4477 19.5523,11 19,11 L13,11 L13,6 L20,6 C20.5523,6 21,5.55228 21,5 C21,4.44772 20.5523,4 20,4 L13,4 Z" id="形状" fill="#09244B"></path>
            </g>
        </g>
    </g>
</svg>

<svg xmlns="http://www.w3.org/2000/svg" width="24" height="24"><g fill="none" fill-rule="nonzero"><path d="M24 0v24H0V0h24ZM12.594 23.258l-.012.002-.071.035-.02.004-.014-.004-.071-.036c-.01-.003-.019 0-.024.006l-.004.01-.017.428.005.02.01.013.104.074.015.004.012-.004.104-.074.012-.016.004-.017-.017-.427c-.002-.01-.009-.017-.016-.018Zm.264-.113-.014.002-.184.093-.01.01-.003.011.018.43.005.012.008.008.201.092c.012.004.023 0 .029-.008l.004-.014-.034-.614c-.003-.012-.01-.02-.02-.022Zm-.715.002a.023.023 0 0 0-.027.006l-.006.014-.034.614c0 .012.007.02.017.024l.015-.002.201-.093.01-.008.003-.011.018-.43-.003-.012-.01-.01-.184-.092Z"/><path fill="#09244B" d="M6 4a3 3 0 1 1 0 6 3 3 0 0 1 0-6Zm0 2a1 1 0 1 0 0 2 1 1 0 0 0 0-2Zm7-2a2 2 0 0 0-2 2v13a1 1 0 1 0 2 0v-6h6a1 1 0 1 0 0-2h-6V6h7a1 1 0 1 0 0-2h-7Z"/></g></svg>
